X: 20869
T: Jolly Pigeons, The
R: reel
M: 4/4
K: Eminor
DEGA BEED|DBBA Bcd2|AF~F2 DF~F2|AdBF AFEF|
DEGA BEED|DBBA Bcde|f2ef dBAB|dBAF E3z:|
|:Beed e2ae|fedA Bdd2|fede ~f3e|fedA BA~A2|
Beed e2ae|fedA Bcde|f2ef dBAB|dBAF E3z:|

